svg/Tango/status/software-update-available.svg

<?xml version="1.0" encoding="UTF-8" standalone="no"?>
<!-- Created with Inkscape (http://www.inkscape.org/) -->
<svg
   xmlns:dc="http://purl.org/dc/elements/1.1/"
   xmlns:cc="http://creativecommons.org/ns#"
   xmlns:rdf="http://www.w3.org/1999/02/22-rdf-syntax-ns#"
   xmlns:svg="http://www.w3.org/2000/svg"
   xmlns="http://www.w3.org/2000/svg"
   xmlns:xlink="http://www.w3.org/1999/xlink"
   xmlns:sodipodi="http://sodipodi.sourceforge.net/DTD/sodipodi-0.dtd"
   xmlns:inkscape="http://www.inkscape.org/namespaces/inkscape"
   width="48"
   height="48"
   id="svg7854"
   sodipodi:version="0.32"
   inkscape:version="0.46"
   version="1.0"
   sodipodi:docname="software-update-available.svg"
   inkscape:output_extension="org.inkscape.output.svg.inkscape">
  <defs
     id="defs7856">
    <inkscape:perspective
       sodipodi:type="inkscape:persp3d"
       inkscape:vp_x="0 : 24 : 1"
       inkscape:vp_y="0 : 1000 : 0"
       inkscape:vp_z="48 : 24 : 1"
       inkscape:persp3d-origin="24 : 16 : 1"
       id="perspective26" />
    <linearGradient
       inkscape:collect="always"
       id="linearGradient5202">
      <stop
         style="stop-color:#ffffff;stop-opacity:1;"
         offset="0"
         id="stop5204" />
      <stop
         style="stop-color:#ffffff;stop-opacity:0;"
         offset="1"
         id="stop5206" />
    </linearGradient>
    <linearGradient
       inkscape:collect="always"
       id="linearGradient5190">
      <stop
         style="stop-color:#f57900;stop-opacity:1;"
         offset="0"
         id="stop5192" />
      <stop
         style="stop-color:#fcaf3e;stop-opacity:1"
         offset="1"
         id="stop5194" />
    </linearGradient>
    <linearGradient
       inkscape:collect="always"
       id="linearGradient5130">
      <stop
         style="stop-color:#000000;stop-opacity:1;"
         offset="0"
         id="stop5132" />
      <stop
         style="stop-color:#000000;stop-opacity:0;"
         offset="1"
         id="stop5134" />
    </linearGradient>
    <radialGradient
       inkscape:collect="always"
       xlink:href="#linearGradient5130"
       id="radialGradient5136"
       cx="22"
       cy="38.5"
       fx="22"
       fy="38.5"
       r="13"
       gradientTransform="matrix(1,0,0,0.5,0,19.25)"
       gradientUnits="userSpaceOnUse" />
    <filter
       inkscape:collect="always"
       x="-0.17349398"
       width="1.346988"
       y="-0.34698795"
       height="1.6939759"
       id="filter5186">
      <feGaussianBlur
         inkscape:collect="always"
         stdDeviation="1.8795181"
         id="feGaussianBlur5188" />
    </filter>
    <radialGradient
       inkscape:collect="always"
       xlink:href="#linearGradient5190"
       id="radialGradient5200"
       gradientUnits="userSpaceOnUse"
       gradientTransform="matrix(0,-1.2519025,47.292244,0,-1418.0196,57.3867)"
       cx="21.525126"
       cy="30.439341"
       fx="21.525126"
       fy="30.439341"
       r="18.888176" />
    <linearGradient
       inkscape:collect="always"
       xlink:href="#linearGradient5202"
       id="linearGradient5208"
       x1="22.109375"
       y1="11.34375"
       x2="22.109375"
       y2="49.612667"
       gradientUnits="userSpaceOnUse" />
  </defs>
  <sodipodi:namedview
     id="base"
     pagecolor="#ffffff"
     bordercolor="#e0e0e0"
     borderopacity="1"
     gridtolerance="10000"
     guidetolerance="10"
     objecttolerance="10"
     inkscape:pageopacity="0.0"
     inkscape:pageshadow="2"
     inkscape:zoom="1"
     inkscape:cx="32.757166"
     inkscape:cy="31.70708"
     inkscape:document-units="px"
     inkscape:current-layer="layer1"
     width="48px"
     height="48px"
     inkscape:showpageshadow="false"
     inkscape:window-width="1187"
     inkscape:window-height="818"
     inkscape:window-x="247"
     inkscape:window-y="30"
     showgrid="true">
    <inkscape:grid
       type="xygrid"
       id="grid4614" />
  </sodipodi:namedview>
  <metadata
     id="metadata7859">
    <rdf:RDF>
      <cc:Work
         rdf:about="">
        <dc:format>image/svg+xml</dc:format>
        <dc:type
           rdf:resource="http://purl.org/dc/dcmitype/StillImage" />
        <dc:creator>
          <cc:Agent>
            <dc:title>Jakub Steiner</dc:title>
          </cc:Agent>
        </dc:creator>
        <dc:source>http://jimmac.musichall.cz</dc:source>
        <cc:license
           rdf:resource="http://creativecommons.org/licenses/publicdomain/" />
      </cc:Work>
      <cc:License
         rdf:about="http://creativecommons.org/licenses/publicdomain/">
        <cc:permits
           rdf:resource="http://creativecommons.org/ns#Reproduction" />
        <cc:permits
           rdf:resource="http://creativecommons.org/ns#Distribution" />
        <cc:permits
           rdf:resource="http://creativecommons.org/ns#DerivativeWorks" />
      </cc:License>
    </rdf:RDF>
  </metadata>
  <g
     inkscape:label="Layer 1"
     inkscape:groupmode="layer"
     id="layer1">
    <path
       sodipodi:type="arc"
       style="opacity:0.43373497;color:#000000;fill:url(#radialGradient5136);fill-opacity:1;fill-rule:nonzero;stroke:none;stroke-width:1;stroke-linecap:butt;stroke-linejoin:miter;marker:none;marker-start:none;marker-mid:none;marker-end:none;stroke-miterlimit:4;stroke-dasharray:none;stroke-dashoffset:0;stroke-opacity:1;visibility:visible;display:inline;overflow:visible;filter:url(#filter5186);enable-background:accumulate"
       id="path4551"
       sodipodi:cx="22"
       sodipodi:cy="38.5"
       sodipodi:rx="13"
       sodipodi:ry="6.5"
       d="M 35,38.5 A 13,6.5 0 1 1 9,38.5 A 13,6.5 0 1 1 35,38.5 z"
       transform="matrix(1.3257204,0,0,1.3060079,-3.6937336,-12.797355)" />
    <path
       sodipodi:type="star"
       style="opacity:1;color:#000000;fill:url(#radialGradient5200);fill-opacity:1;fill-rule:nonzero;stroke:#ce5c00;stroke-width:1;stroke-linecap:butt;stroke-linejoin:miter;marker:none;marker-start:none;marker-mid:none;marker-end:none;stroke-miterlimit:4;stroke-dasharray:none;stroke-dashoffset:0;stroke-opacity:1;visibility:visible;display:inline;overflow:visible;enable-background:accumulate"
       id="path4547"
       sodipodi:sides="8"
       sodipodi:cx="22.097088"
       sodipodi:cy="22.720934"
       sodipodi:r1="18.388176"
       sodipodi:r2="12.035836"
       sodipodi:arg1="0.78539816"
       sodipodi:arg2="1.1780972"
       inkscape:flatsided="false"
       inkscape:rounded="0"
       inkscape:randomized="0"
       d="M 35.099492,35.723338 L 26.703003,33.840596 L 22.097088,41.10911 L 17.491173,33.840597 L 9.094684,35.723338 L 10.977425,27.32685 L 3.7089119,22.720934 L 10.977425,18.115019 L 9.0946839,9.71853 L 17.491172,11.601271 L 22.097088,4.3327579 L 26.703002,11.601271 L 35.099492,9.71853 L 33.21675,18.115018 L 40.485264,22.720934 L 33.216751,27.326849 L 35.099492,35.723338 z"
       transform="matrix(1.1209343,0,0,1.1042669,-0.1974224,-1.3744715)" />
    <path
       sodipodi:type="inkscape:offset"
       inkscape:radius="-0.97009587"
       inkscape:original="M 22.09375 4.34375 L 17.5 11.59375 L 9.09375 9.71875 L 10.96875 18.125 L 3.71875 22.71875 L 10.96875 27.3125 L 9.09375 35.71875 L 17.5 33.84375 L 22.09375 41.09375 L 26.6875 33.84375 L 35.09375 35.71875 L 33.21875 27.3125 L 40.5 22.71875 L 33.21875 18.125 L 35.09375 9.71875 L 26.6875 11.59375 L 22.09375 4.34375 z "
       xlink:href="#path4547"
       style="opacity:0.3373494;color:#000000;fill:none;fill-opacity:1;fill-rule:nonzero;stroke:url(#linearGradient5208);stroke-width:1;stroke-linecap:butt;stroke-linejoin:miter;marker:none;marker-start:none;marker-mid:none;marker-end:none;stroke-miterlimit:4;stroke-dasharray:none;stroke-dashoffset:0;stroke-opacity:1;visibility:visible;display:inline;overflow:visible;enable-background:accumulate"
       id="path5198"
       inkscape:href="#path4547"
       d="M 22.09375,6.15625 L 18.3125,12.125 C 18.087547,12.462771 17.676134,12.624843 17.28125,12.53125 L 10.375,11 L 11.90625,17.90625 C 11.999843,18.301134 11.837771,18.712547 11.5,18.9375 L 5.53125,22.71875 L 11.5,26.5 C 11.837771,26.724953 11.999843,27.136366 11.90625,27.53125 L 10.375,34.4375 L 17.28125,32.90625 C 17.676134,32.812657 18.087547,32.974729 18.3125,33.3125 L 22.09375,39.28125 L 25.875,33.3125 C 26.099953,32.974729 26.511366,32.812657 26.90625,32.90625 L 33.8125,34.4375 L 32.28125,27.53125 C 32.187657,27.136366 32.349729,26.724953 32.6875,26.5 L 38.6875,22.71875 L 32.6875,18.9375 C 32.349729,18.712547 32.187657,18.301134 32.28125,17.90625 L 33.8125,11 L 26.90625,12.53125 C 26.511366,12.624843 26.099953,12.462771 25.875,12.125 L 22.09375,6.15625 z"
       transform="matrix(1.1263736,0,0,1.1263736,-0.2940419,-1.8085508)" />
    <path
       style="opacity:1;color:#000000;fill:#fed08e;fill-opacity:1;fill-rule:nonzero;stroke:none;stroke-width:0.90702784;stroke-linecap:butt;stroke-linejoin:miter;marker:none;marker-start:none;marker-mid:none;marker-end:none;stroke-miterlimit:4;stroke-dasharray:none;stroke-dashoffset:0;stroke-opacity:1;visibility:visible;display:inline;overflow:visible;enable-background:accumulate"
       d="M 21.536458,18 C 20.842684,18 20.296875,18.599375 20.296875,19.348958 L 20.296875,25 L 16.359375,25 L 25.036458,32 L 33.203125,25 L 29.630208,25 L 29.630208,19.348958 C 29.630208,18.599374 29.047941,18 28.354167,18 L 21.536458,18 z"
       id="rect4610" />
  </g>
</svg>

<svg xmlns="http://www.w3.org/2000/svg" viewBox="0 0 48 48"><defs><filter x="-.173" width="1.347" y="-.347" height="1.694" id="1"><feGaussianBlur stdDeviation="1.87952"/></filter><linearGradient id="3" y1="11.344" x2="0" y2="49.613" gradientUnits="userSpaceOnUse"><stop stop-color="#fff"/><stop offset="1" stop-color="#fff" stop-opacity="0"/></linearGradient><radialGradient id="2" gradientUnits="userSpaceOnUse" gradientTransform="matrix(0-1.2519 47.2922 0-1418.02 57.39)" cx="21.525" cy="30.439" r="18.888"><stop stop-color="#f57900"/><stop offset="1" stop-color="#fcaf3e"/></radialGradient><radialGradient id="0" cx="22" cy="38.5" r="13" gradientTransform="matrix(1 0 0 .5 0 19.25)" gradientUnits="userSpaceOnUse"><stop/><stop offset="1" stop-opacity="0"/></radialGradient></defs><g color="#000"><path d="M35 38.5A13 6.5 0 1 1 9 38.5 13 6.5 0 1 1 35 38.5" transform="matrix(1.32572 0 0 1.30601-3.694-12.797)" opacity=".434" filter="url(#1)" fill="url(#0)"/><path d="m35.1 35.723l-8.396-1.883-4.606 7.269-4.606-7.269-8.396 1.883 1.883-8.396-7.269-4.606 7.269-4.606-1.883-8.396 8.396 1.883 4.606-7.269 4.606 7.269 8.396-1.883-1.883 8.396 7.269 4.606-7.269 4.606 1.883 8.396z" transform="matrix(1.12093 0 0 1.10427-.197-1.374)" fill="url(#2)" stroke="#ce5c00"/><path d="m22.09 6.156l-3.781 5.969c-.225.338-.636.5-1.031.406l-6.906-1.531 1.531 6.906c.094.395-.068.806-.406 1.031l-5.969 3.781 5.969 3.781c.338.225.5.636.406 1.031l-1.531 6.906 6.906-1.531c.395-.094.806.068 1.031.406l3.781 5.969 3.781-5.969c.225-.338.636-.5 1.031-.406l6.906 1.531-1.531-6.906c-.094-.395.068-.806.406-1.031l6-3.781-6-3.781c-.338-.225-.5-.636-.406-1.031l1.531-6.906-6.906 1.531c-.395.094-.806-.068-1.031-.406l-3.781-5.969z" transform="matrix(1.12637 0 0 1.12637-.294-1.809)" opacity=".337" fill="none" stroke="url(#3)"/><path d="m21.536 18c-.694 0-1.24.599-1.24 1.349v5.651h-3.938l8.677 7 8.167-7h-3.573v-5.651c0-.75-.582-1.349-1.276-1.349h-6.818" fill="#fed08e"/></g></svg>
